actions/24/view-calendar-tasks.svg

<svg xmlns="http://www.w3.org/2000/svg" viewBox="0 0 24 24" width="24" height="24">
  <defs id="defs3051">
    <style type="text/css" id="current-color-scheme">.ColorScheme-Text {color:#fcfcfc;}</style>
  </defs>
  <g transform="translate(1,1)">
    <path style="fill:currentColor;fill-opacity:1;stroke:none" d="M 6,3 C 4,3 4,5 4,5 H 3 V 6 H 4 V 7 H 3 v 1 h 1 v 6 H 3 v 1 h 1 v 1 H 3 v 1 h 1 c 0,0 0,2 2,2 2,0 1,0 1,0 0,0 6,0 9,0 3,0 3,-3 3,-3 V 6 C 19,6 19,3 16,3 13,3 7,3 7,3 7,3 8,3 6,3 Z m 3,1 c 2,0 5,0 7,0 2,0 2,2 2,2 v 1 2 1 2 1 2 1 c 0,0 0,2 -2,2 -2,0 -5,0 -7,0 C 7,18 7,16 7,16 V 15 13 12 10 9 7 6 C 7,6 7,4 9,4 Z M 8,6 v 2 h 2 V 6 Z m 3,0 v 1 h 6 V 6 Z m -3,4 v 2 h 2 v -2 z m 3,0 v 1 h 6 v -1 z m -3,4 v 2 h 2 v -2 z m 3,0 v 1 h 6 v -1 z" class="ColorScheme-Text"/>
  </g>
</svg>

<svg xmlns="http://www.w3.org/2000/svg" viewBox="0 0 24 24" width="24" height="24">
  <defs id="defs3051">
    <style type="text/css" id="current-color-scheme">
      .ColorScheme-Text {
        color:#eff0f1;
      }
      </style>
  </defs>
  <g transform="translate(1,1)">
    <path style="fill:currentColor;fill-opacity:1;stroke:none" d="M 4 3 L 4 5 L 3 5 L 3 6 L 4 6 L 4 7 L 3 7 L 3 8 L 4 8 L 4 14 L 3 14 L 3 15 L 4 15 L 4 16 L 3 16 L 3 17 L 4 17 L 4 19 L 7 19 L 19 19 L 19 18 L 19 3 L 7 3 L 4 3 z M 7 4 L 9 4 L 10 4 L 18 4 L 18 6 L 18 7 L 18 9 L 18 10 L 18 12 L 18 13 L 18 15 L 18 16 L 18 18 L 10 18 L 9 18 L 7 18 L 7 16 L 7 15 L 7 13 L 7 12 L 7 10 L 7 9 L 7 7 L 7 6 L 7 4 z M 8 6 L 8 8 L 10 8 L 10 6 L 8 6 z M 11 6 L 11 7 L 17 7 L 17 6 L 11 6 z M 8 10 L 8 12 L 10 12 L 10 10 L 8 10 z M 11 10 L 11 11 L 17 11 L 17 10 L 11 10 z M 8 14 L 8 16 L 10 16 L 10 14 L 8 14 z M 11 14 L 11 15 L 17 15 L 17 14 L 11 14 z " class="ColorScheme-Text"/>
  </g>
</svg>
